Papirus/32x32/apps/allegorithmic-Substance_Designer.svg

<svg width="32" height="32" version="1.1" xmlns="http://www.w3.org/2000/svg">
 <path d="m16 2.000013c-1.108 0-2.061458 0.8936693-2 1.9999748v1.0000252h-8.0000001c-1.1079991 0-2.0000001 0.8919684-2.0000001 1.9999747l8e-7 8.0000123h-1.0000002c-1.1079998 0-1.9999999 0.892006-1.9999999 2.000013 0 1.108006 0.892628 2.037316 1.9999999 2.000012h1.0000002v7.999975c0 1.107968 0.8920006 2.000013 1.9999997 2.000013h19.999999c1.107999 0 2.000001-0.892045 2-2.000013v-7.999975h1c1.108 0 2-0.892006 2-2.000012 0-1.108007-0.892732-1.959723-2-2.000013h-1v-8.0000123c0-1.1080063-0.892004-1.9975558-2-1.9999747h-8v-1.0000252c0-1.1080063-0.892-1.9999748-1.999999-1.9999748z" style="fill:#f04b23"/>
 <path d="m16 2.000013c-1.108 0-2 0.8919685-2 1.9999748v1.0000252c0-1.1080063 0.892-2.0000126 2-2.0000126 1.107999 0 2 0.8920063 2 2.0000126v-1.0000252c-1e-6 -1.1080063-0.892001-1.9999748-2-1.9999748zm2 3v0.9999873h8c1.107998 0 2 0.8920063 2 2.0000126v-1.0000252c0-1.1080063-0.892005-1.9975558-2-1.9999747zm-4 0h-8.0000001c-1.1079991 0-2.0000001 0.8919684-2.0000001 1.9999747v1.0000252c0-1.1080063 0.892001-2.0000126 2.0000001-2.0000126h8.0000001zm-11 9.999987c-1.1079998 0-1.9999999 0.892006-1.9999999 2.000013 0 0.173858 0.029012 0.339401 0.070312 0.499993 0.2219513-0.862979 0.9960518-1.468535 1.9296875-1.499981h0.9999998v-1.000025zm24.999999 0v1.000025h1c0.934165 0 1.707735 0.637002 1.929687 1.499981 0.0413-0.160629 0.07031-0.326173 0.07031-0.499993 0-1.108007-0.892-2.000013-2-2.000013z" style="fill:#ffffff;opacity:.2"/>
 <path d="m1.070313 17.500006c-0.0413019 0.16063-0.070312 0.326174-0.070312 0.499994 0 1.108006 0.892 2.000013 1.9999999 2.000013h1v-0.999988h-1c-0.9341655 0-1.7077366-0.637001-1.9296879-1.500019zm29.859373 0c-0.221953 0.863018-0.995522 1.500019-1.929687 1.500019h-1v0.999988h1c1.108 0 2-0.892007 2-2.000013 0-0.173858-0.02903-0.339401-0.07031-0.499994zm-26.929685 9.499994v1.000025c0 1.107969 0.8920006 1.999975 1.9999997 1.999975h19.999999c1.107999 0 2-0.892006 2-1.999975v-1.000025c0 1.107968-0.892001 2.000013-2 2.000013h-19.999999c-1.1079991 0-1.9999997-0.892045-1.9999997-2.000013z" style="fill:#000007;opacity:.2"/>
 <path d="m16 9.0000003-8.0000015 3.9999877 1.5e-6 4.000025 11.999999 4.000025-3.999999 1.999975-4-1.999975v-1.000025l-4-1.333342v4.333342l8 4.000025 8-4.000025-2e-6 -3-11.999999-5.000013 4-2.000012 3.999999 2.000012v0.999988l4 1.333341v-4.333341z" style="fill-opacity:.9004525;fill:#000005;opacity:.2"/>
 <path d="m16 8.0000507-8.0000015 3.9999873 1.5e-6 4.000025 12 4.000025-4 1.999975-4-1.999975v-1.000025l-4-1.333342v4.333342l8 4.000025 8-4.000025-2e-6 -4.000025-11.999999-3.999987 4-2.000013 3.999999 2.000013v0.999987l4 1.333342v-4.333342z" style="fill:#fdffff"/>
</svg>

<svg xmlns="http://www.w3.org/2000/svg" width="32" height="32" version="1.1">
 <path style="opacity:0.2" d="M 16,3 C 14.892,3 13.939,3.8937 14,5 V 6 H 6 C 4.892,6 4,6.892 4,8 V 16 H 3 C 1.892,16 1,16.892 1,18 1,19.108 1.8926,20.037 3,20 H 4 V 28 C 4,29.108 4.892,30 6,30 H 26 C 27.108,30 28,29.108 28,28 V 20 H 29 C 30.108,20 31,19.108 31,18 31,16.892 30.107,16.04 29,16 H 28 V 8 C 28,6.892 27.108,6.0024 26,6 H 18 V 5 C 18,3.892 17.108,3 16,3 Z"/>
 <path style="fill:#f04b23" d="M 16,2 C 14.892,2 13.939,2.8937 14,4 V 5 H 6 C 4.892,5 4,5.892 4,7 V 15 H 3 C 1.892,15 1,15.892 1,17 1,18.108 1.8926,19.037 3,19 H 4 V 27 C 4,28.108 4.892,29 6,29 H 26 C 27.108,29 28,28.108 28,27 V 19 H 29 C 30.108,19 31,18.108 31,17 31,15.892 30.107,15.04 29,15 H 28 V 7 C 28,5.892 27.108,5.0024 26,5 H 18 V 4 C 18,2.892 17.108,2 16,2 Z"/>
 <path style="opacity:0.2" d="M 16,9 8,13 V 17 L 20,21 16,23 12,21 V 20 L 8,18.667 V 23 L 16,27 24,23 V 19 L 12,15 16,13 20,15 V 16 L 24,17.333 V 13 Z"/>
 <path style="fill:#fdffff" d="M 16,8 8,12 V 16 L 20,20 16,22 12,20 V 19 L 8,17.667 V 22 L 16,26 24,22 V 18 L 12,14 16,12 20,14 V 15 L 24,16.333 V 12 Z"/>
 <path style="fill:#ffffff;opacity:0.2" d="M 16 2 C 14.892 2 13.939 2.8937 14 4 L 14 5 C 13.939 3.8937 14.892 3 16 3 C 17.108 3 18 3.892 18 5 L 18 4 C 18 2.892 17.108 2 16 2 z M 18 5 L 18 6 L 26 6 C 27.108 6.0024 28 6.892 28 8 L 28 7 C 28 5.892 27.108 5.0024 26 5 L 18 5 z M 14 5 L 6 5 C 4.892 5 4 5.892 4 7 L 4 8 C 4 6.892 4.892 6 6 6 L 14 6 L 14 5 z M 3 15 C 1.892 15 1 15.892 1 17 C 1 17.174 1.0291 17.34 1.0703 17.502 C 1.2916 16.638 2.0652 16 3 16 L 4 16 L 4 15 L 3 15 z M 28 15 L 28 16 L 29 16 C 29.933 16.034 30.707 16.648 30.93 17.502 C 30.971 17.341 31 17.174 31 17 C 31 15.892 30.107 15.04 29 15 L 28 15 z"/>
</svg>
